assets/Man gesturing ok/Medium-Light/Flat/man_gesturing_ok_flat_medium-light.svg

<svg width="32" height="32" viewBox="0 0 32 32" fill="none" xmlns="http://www.w3.org/2000/svg">
<path d="M12.5 15.3333C12.5 16.2998 11.7165 17.0833 10.75 17.0833C9.7835 17.0833 9 16.2998 9 15.3333C9 14.3668 9.7835 13.5833 10.75 13.5833C11.7165 13.5833 12.5 14.3668 12.5 15.3333Z" fill="#E4B29A"/>
<path d="M23 15.3333C23 16.2998 22.2165 17.0833 21.25 17.0833C20.2835 17.0833 19.5 16.2998 19.5 15.3333C19.5 14.3668 20.2835 13.5833 21.25 13.5833C22.2165 13.5833 23 14.3668 23 15.3333Z" fill="#E4B29A"/>
<path d="M15 2.62C15 2.22 14.6884 2 14.2979 2L12.5 2.1C12.5 2.1 12.3817 2 12 2C10.8939 2 9.56061 2.96641 9 3.5L7.5 5L10 6.5C10.8678 7.07852 11.4837 6.73665 12.1881 6.3457C12.7013 6.06088 13.2614 5.75 14 5.75C15 5.75 15.2 5.55243 15.2 4.85C15.4 4.85 15.9 4.5 15.6 3.9C15.6 3.9 16.0563 3.72518 15.9 3.1C15.8463 2.88511 15.5742 2.62 15 2.62Z" fill="#EEBFAA"/>
<path d="M16.9326 2.62C16.9326 2.22 17.2443 2 17.6347 2L19.4326 2.1C19.4326 2.1 19.5509 2 19.9326 2C21.0387 2 22.372 2.96641 22.9326 3.5L24.4326 5L21.9326 6.5C21.0648 7.07852 20.4489 6.73665 19.7445 6.3457C19.2314 6.06088 18.6712 5.75 17.9326 5.75C16.9326 5.75 16.7326 5.55243 16.7326 4.85C16.5326 4.85 16.0326 4.5 16.3326 3.9C16.3326 3.9 15.8763 3.72518 16.0326 3.1C16.0863 2.88511 16.3584 2.62 16.9326 2.62Z" fill="#EEBFAA"/>
<path d="M10.9432 2.51785C10.953 2.55093 10.9878 2.56976 11.0209 2.5599C11.8224 2.28995 12.343 2.14083 12.503 2.10001C12.503 2.10001 12.4749 2.0762 12.4017 2.05182C12.3634 2.05953 12.3167 2.07018 12.2639 2.08302C12.1514 2.11032 12.0091 2.14801 11.8572 2.18974C11.5533 2.27322 11.2093 2.37336 10.9852 2.4401C10.9521 2.44996 10.9333 2.48476 10.9432 2.51785Z" fill="#D6A089"/>
<path d="M14.4052 4.46251C14.5419 4.46276 14.7065 4.48695 14.8471 4.55068C15.0656 4.64967 15.203 4.7893 15.203 4.85001C15.2214 4.85001 15.2423 4.84705 15.2649 4.84122C15.2648 4.84003 15.2649 4.83544 15.265 4.83033C15.2652 4.82342 15.2654 4.81552 15.2649 4.81392C15.2084 4.60002 15.0616 4.51062 14.8987 4.43683C14.7367 4.3634 14.5523 4.3375 14.403 4.3375L12.9986 4.43767C12.9642 4.44013 12.9383 4.47003 12.9407 4.50446C12.9432 4.53889 12.9731 4.56481 13.0075 4.56235L14.4052 4.46251Z" fill="#D6A089"/>
<path d="M15.3074 3.63583C15.1985 3.58097 15.0784 3.56251 15.0031 3.56251H13.0031C12.9685 3.56251 12.9406 3.53453 12.9406 3.50001C12.9406 3.46549 12.9685 3.43751 13.0031 3.43751H15.0031C15.0943 3.43751 15.2343 3.45905 15.3637 3.52419C15.4908 3.5882 15.6115 3.69664 15.6599 3.87048C15.626 3.89121 15.603 3.90001 15.603 3.90001C15.603 3.86535 15.5439 3.76399 15.3074 3.63583Z" fill="#D6A089"/>
<path d="M11.9438 3.01978C11.9547 3.05252 11.9901 3.07022 12.0228 3.05931C13.5531 2.61187 14.6472 2.58001 15.003 2.62001C15.003 2.59852 15.0021 2.57755 15.0004 2.5571C14.4357 2.30002 12.4869 2.77287 11.9833 2.94072C11.9506 2.95164 11.9329 2.98703 11.9438 3.01978Z" fill="#D6A089"/>
<path d="M20.9925 2.51785C20.9826 2.55093 20.9478 2.56976 20.9147 2.5599C20.1132 2.28995 19.5927 2.14083 19.4326 2.10001C19.4326 2.10001 19.4608 2.0762 19.5339 2.05182C19.5722 2.05953 19.6189 2.07018 19.6718 2.08302C19.7842 2.11032 19.9265 2.14801 20.0784 2.18974C20.3823 2.27322 20.7263 2.37336 20.9504 2.4401C20.9835 2.44996 21.0023 2.48476 20.9925 2.51785Z" fill="#D6A089"/>
<path d="M17.5304 4.46251C17.3937 4.46276 17.2291 4.48695 17.0885 4.55068C16.8701 4.64967 16.7326 4.7893 16.7326 4.85001C16.7142 4.85001 16.6933 4.84705 16.6707 4.84122C16.6709 4.84003 16.6707 4.83544 16.6706 4.83033C16.6704 4.82341 16.6702 4.81552 16.6707 4.81392C16.7272 4.60002 16.8741 4.51062 17.0369 4.43683C17.1989 4.3634 17.3833 4.3375 17.5326 4.3375L18.937 4.43767C18.9715 4.44013 18.9974 4.47003 18.9949 4.50446C18.9925 4.53889 18.9626 4.56481 18.9281 4.56235L17.5304 4.46251Z" fill="#D6A089"/>
<path d="M16.6282 3.63583C16.7371 3.58097 16.8572 3.56251 16.9326 3.56251H18.9326C18.9671 3.56251 18.9951 3.53453 18.9951 3.50001C18.9951 3.46549 18.9671 3.43751 18.9326 3.43751H16.9326C16.8413 3.43751 16.7013 3.45905 16.572 3.52419C16.4448 3.5882 16.3241 3.69664 16.2757 3.87048C16.3096 3.89121 16.3326 3.90001 16.3326 3.90001C16.3326 3.86535 16.3917 3.76399 16.6282 3.63583Z" fill="#D6A089"/>
<path d="M19.9919 3.01978C19.9809 3.05252 19.9455 3.07022 19.9128 3.05931C18.3825 2.61187 17.2884 2.58001 16.9326 2.62001C16.9326 2.59852 16.9335 2.57755 16.9353 2.5571C17.5 2.30002 19.4488 2.77287 19.9523 2.94072C19.9851 2.95164 20.0028 2.98703 19.9919 3.01978Z" fill="#D6A089"/>
<path d="M25.4703 6.26998L22.1103 8.35998L21.2303 6.92998C21.1403 6.77998 21.1803 6.58998 21.3303 6.49998L24.1603 4.73998C24.3103 4.64998 24.5003 4.68998 24.5903 4.83998L25.4703 6.26998Z" fill="#0092E7"/>
<path d="M6.54028 6.27997L9.89028 8.35997L10.7803 6.93997C10.8703 6.78997 10.8303 6.59997 10.6803 6.50997L7.85028 4.74997C7.70028 4.65997 7.51028 4.69997 7.42028 4.84997L6.54028 6.27997Z" fill="#0092E7"/>
<path d="M28.6703 9.80077L26.3103 6.0072C26.0003 5.51066 25.3403 5.35177 24.8403 5.65963L22.0003 7.39751C21.5003 7.70537 21.3403 8.3608 21.6503 8.85734L24.0103 12.6509C24.6503 13.6837 24.7003 14.9946 24.1303 16.077L20.8603 22.2639C20.7738 22.4304 20.6405 22.562 20.481 22.6478C19.1617 21.9178 17.6318 21.5 16 21.5C14.3705 21.5029 12.8426 21.9205 11.5246 22.6486C11.366 22.5629 11.2325 22.4309 11.1403 22.2639L7.8703 16.077C7.3003 15.0045 7.3503 13.6837 7.9903 12.6509L10.3503 8.85734C10.6603 8.3608 10.5003 7.70537 10.0003 7.39751L7.1603 5.65963C6.6603 5.35177 6.0003 5.50073 5.6903 6.0072L3.3303 9.80077C1.6703 12.4622 1.5603 15.8387 3.0203 18.6094L6.6303 25.4318C6.9103 25.9681 7.5 26.8942 7.5 27.5C7.5 27.5 7 28.75 7.0014 30H24.9986C24.9986 28.75 24.5 27.5 24.5 27.5C24.5 26.9042 25.1203 25.9284 25.4003 25.3921L28.9803 18.6193C30.4403 15.8387 30.3303 12.4622 28.6703 9.80077Z" fill="#00A6ED"/>
<path d="M16 24.5C14.8996 24.5 14 23.6591 14 22.6136V20.3864C14 19.3485 14.8916 18.5 16 18.5C17.1004 18.5 18 19.3409 18 20.3864V22.6136C17.992 23.6591 17.1004 24.5 16 24.5Z" fill="#E4B29A"/>
<path d="M15.5504 7.62C12.5704 7.62 10.2104 10.15 10.4204 13.12L10.8404 19.1C11.0204 20.98 12.5004 22.32 14.3004 22.32H17.7504C19.5504 22.32 21.0304 20.98 21.2104 19.1L21.6304 13.12C21.8404 10.14 19.4804 7.62 16.5004 7.62H15.5504V7.62Z" fill="#EEBFAA"/>
<path d="M21.6503 8.67999L21.2003 8.44999C20.8803 8.28999 20.5803 8.07999 20.3303 7.81999L19.4403 6.93999C18.7803 6.27999 17.7903 6.04999 16.9003 6.35999C16.3303 6.55999 15.7003 6.55999 15.1203 6.35999C14.3403 5.96999 13.4003 6.11999 12.7803 6.73999L11.7103 7.81999C11.4503 8.07999 11.1603 8.28999 10.8403 8.44999L10.3803 8.67999C9.54025 9.09999 9.08025 10.02 9.25025 10.94L9.86025 14.25C9.92025 14.58 10.2003 14.82 10.5403 14.83C10.5403 14.83 10.4803 13.89 10.4403 13.28C10.4203 12.97 10.5403 12.67 10.7803 12.46L10.9803 12.28C11.2403 12.04 11.4003 11.69 11.4003 11.33V10.4C11.4003 10.14 11.5803 9.90999 11.8303 9.83999C12.5203 9.66999 13.9803 9.37999 16.0203 9.37999C18.0603 9.37999 19.5203 9.66999 20.2103 9.83999C20.4703 9.89999 20.6403 10.13 20.6403 10.4V11.33C20.6403 11.69 20.7903 12.04 21.0703 12.28L21.2803 12.47C21.5103 12.68 21.6403 12.98 21.6203 13.29C21.5803 13.89 21.5203 14.82 21.5203 14.82C21.8503 14.8 22.1203 14.56 22.1803 14.24L22.7903 10.93C22.9503 10.01 22.4903 9.08999 21.6503 8.67999Z" fill="#FFF9BA"/>
<path d="M11.9254 14.9642C12.0924 14.3068 12.6914 13.8166 13.3998 13.8166C14.1369 13.8166 14.7532 14.3414 14.8914 15.0392C14.9202 15.1949 14.7993 15.3333 14.6438 15.3333H12.2191C12.0233 15.3333 11.8793 15.1545 11.9254 14.9642Z" fill="white"/>
<path d="M20.0747 14.9642C19.9077 14.3068 19.3087 13.8166 18.6003 13.8166C17.8574 13.8166 17.2469 14.3414 17.1087 15.0392C17.0799 15.1949 17.2008 15.3333 17.3563 15.3333H19.781C19.9768 15.3333 20.1208 15.1545 20.0747 14.9642Z" fill="white"/>
<path d="M12.6509 15.0748C12.6509 14.5348 13.0886 14.1039 13.6242 14.1039C14.1598 14.1039 14.5918 14.5348 14.5918 15.0748C14.5918 15.1667 14.5802 15.2529 14.5572 15.3333H12.6854C12.6624 15.2472 12.6509 15.1667 12.6509 15.0748Z" fill="#7D4533"/>
<path d="M19.349 15.0748C19.349 14.5348 18.9112 14.1039 18.3756 14.1039C17.84 14.1039 17.4023 14.5348 17.4081 15.0748C17.4081 15.1667 17.4196 15.2529 17.4426 15.3333H19.3144C19.3374 15.2472 19.349 15.1667 19.349 15.0748Z" fill="#7D4533"/>
<path d="M13.6244 14.5233C13.9297 14.5233 14.1773 14.7703 14.1773 15.0748C14.1773 15.1667 14.1543 15.2529 14.114 15.3333H13.1349C13.0946 15.2529 13.0715 15.1667 13.0715 15.0748C13.0715 14.7703 13.3192 14.5233 13.6244 14.5233Z" fill="black"/>
<path d="M18.37 14.5233C18.0647 14.5233 17.8171 14.7703 17.8171 15.0748C17.8171 15.1667 17.8401 15.2529 17.8804 15.3333H18.8595C18.8998 15.2529 18.9229 15.1667 18.9229 15.0748C18.9229 14.7703 18.6752 14.5233 18.37 14.5233Z" fill="black"/>
<path d="M13.463 14.7033C13.463 14.8 13.3856 14.8783 13.2902 14.8783C13.1948 14.8783 13.1174 14.8 13.1174 14.7033C13.1174 14.6067 13.1948 14.5283 13.2902 14.5283C13.3856 14.5283 13.463 14.6067 13.463 14.7033Z" fill="white"/>
<path d="M18.2431 14.7033C18.2431 14.8 18.1658 14.8783 18.0704 14.8783C17.9749 14.8783 17.8976 14.8 17.8976 14.7033C17.8976 14.6067 17.9749 14.5283 18.0704 14.5283C18.1658 14.5283 18.2431 14.6067 18.2431 14.7033Z" fill="white"/>
<path d="M15.5841 15.0571L15.0061 16.906C14.8882 17.2863 15.1713 17.6666 15.5723 17.6666H16.4276C16.8286 17.6666 17.1118 17.2805 16.9938 16.906L16.4158 15.0571C16.2919 14.6476 15.7139 14.6476 15.5841 15.0571Z" fill="#D19479"/>
<path d="M16 18.7723C15.4481 18.7723 14.9293 18.6424 14.4932 18.4151C14.3442 18.3393 14.1842 18.5071 14.278 18.6424C14.6423 19.1945 15.277 19.5625 16 19.5625C16.723 19.5625 17.3577 19.1945 17.722 18.6424C17.8158 18.5017 17.6558 18.3393 17.5068 18.4151C17.0707 18.6424 16.5574 18.7723 16 18.7723Z" fill="#990838"/>
<path fill-rule="evenodd" clip-rule="evenodd" d="M11.8803 13.36C12.0003 13.51 12.1703 13.59 12.3503 13.59C12.4703 13.59 12.6003 13.55 12.7003 13.46C12.7012 13.46 12.7068 13.4565 12.7167 13.4502C12.8144 13.3884 13.3344 13.0593 14.0603 13.15C14.3703 13.19 14.6703 12.96 14.7103 12.64C14.7503 12.32 14.5203 12.03 14.2003 11.99C12.923 11.8403 12.0341 12.5071 11.9905 12.5398L11.9903 12.54C11.7303 12.73 11.6803 13.1 11.8803 13.36ZM19.3502 13.47C19.4502 13.55 19.5802 13.59 19.7002 13.59C19.8802 13.59 20.0502 13.51 20.1702 13.37C20.3602 13.12 20.3202 12.75 20.0602 12.55C20.0302 12.52 19.1402 11.84 17.8502 12C17.5302 12.04 17.3002 12.33 17.3402 12.65C17.3802 12.97 17.6702 13.2 17.9902 13.16C18.757 13.0629 19.2883 13.4275 19.3463 13.4673C19.348 13.4685 19.3493 13.4694 19.3502 13.47Z" fill="#A56953"/>
</svg>

<svg xmlns="http://www.w3.org/2000/svg" width="32" height="32" fill="none"><path fill="#E4B29A" d="M12.5 15.333a1.75 1.75 0 1 1-3.5 0 1.75 1.75 0 0 1 3.5 0ZM23 15.333a1.75 1.75 0 1 1-3.5 0 1.75 1.75 0 0 1 3.5 0Z"/><path fill="#EEBFAA" d="M15 2.62c0-.4-.312-.62-.702-.62l-1.798.1S12.382 2 12 2c-1.106 0-2.44.966-3 1.5L7.5 5 10 6.5c.868.579 1.484.237 2.188-.154.513-.285 1.073-.596 1.812-.596 1 0 1.2-.198 1.2-.9.2 0 .7-.35.4-.95 0 0 .456-.175.3-.8-.054-.215-.326-.48-.9-.48Z"/><path fill="#EEBFAA" d="M16.933 2.62c0-.4.311-.62.702-.62l1.798.1s.118-.1.5-.1c1.106 0 2.439.966 3 1.5l1.5 1.5-2.5 1.5c-.868.579-1.484.237-2.189-.154-.513-.285-1.073-.596-1.811-.596-1 0-1.2-.198-1.2-.9-.2 0-.7-.35-.4-.95 0 0-.457-.175-.3-.8.053-.215.325-.48.9-.48Z"/><path fill="#D6A089" d="M10.943 2.518c.01.033.045.052.078.042.801-.27 1.322-.42 1.482-.46 0 0-.028-.024-.101-.048a14.81 14.81 0 0 0-.544.138c-.305.083-.649.183-.873.25a.062.062 0 0 0-.042.078ZM14.405 4.463c.137 0 .302.024.442.088.219.099.356.238.356.299.018 0 .04-.003.062-.009V4.814c-.057-.214-.203-.303-.366-.377a1.237 1.237 0 0 0-.496-.1l-1.404.1a.063.063 0 0 0 .008.125l1.398-.1ZM15.307 3.636a.719.719 0 0 0-.304-.073h-2a.062.062 0 1 1 0-.125h2c.091 0 .231.021.36.086a.55.55 0 0 1 .297.346c-.034.021-.057.03-.057.03 0-.035-.06-.136-.296-.264ZM11.944 3.02c.01.033.046.05.079.04 1.53-.448 2.624-.48 2.98-.44 0-.021 0-.042-.003-.063-.564-.257-2.513.216-3.017.384a.063.063 0 0 0-.04.079ZM20.992 2.518a.063.063 0 0 1-.077.042c-.802-.27-1.322-.42-1.482-.46 0 0 .028-.024.1-.048.04.008.086.018.139.031.112.027.255.065.406.107.304.083.648.183.872.25.034.01.052.045.043.078ZM17.53 4.463c-.136 0-.3.024-.442.088-.218.099-.355.238-.355.299a.252.252 0 0 1-.062-.009V4.814c.056-.214.203-.303.366-.377.162-.074.346-.1.496-.1l1.404.1a.062.062 0 1 1-.009.125l-1.398-.1ZM16.628 3.636a.719.719 0 0 1 .305-.073h2a.063.063 0 0 0 0-.125h-2a.843.843 0 0 0-.361.086.55.55 0 0 0-.296.346c.034.021.057.03.057.03 0-.035.059-.136.295-.264ZM19.992 3.02a.063.063 0 0 1-.08.04c-1.53-.448-2.624-.48-2.98-.44l.003-.063c.565-.257 2.514.216 3.017.384.033.01.05.046.04.079Z"/><path fill="#0092E7" d="m25.47 6.27-3.36 2.09-.88-1.43a.309.309 0 0 1 .1-.43l2.83-1.76c.15-.09.34-.05.43.1l.88 1.43ZM6.54 6.28l3.35 2.08.89-1.42c.09-.15.05-.34-.1-.43L7.85 4.75a.309.309 0 0 0-.43.1l-.88 1.43Z"/><path fill="#00A6ED" d="m28.67 9.8-2.36-3.793a1.075 1.075 0 0 0-1.47-.347L22 7.398c-.5.307-.66.963-.35 1.46l2.36 3.793c.64 1.033.69 2.344.12 3.426l-3.27 6.187a.914.914 0 0 1-.379.384A9.233 9.233 0 0 0 16 21.5a9.268 9.268 0 0 0-4.475 1.149.963.963 0 0 1-.385-.385l-3.27-6.187a3.463 3.463 0 0 1 .12-3.426l2.36-3.794a1.06 1.06 0 0 0-.35-1.46L7.16 5.66a1.066 1.066 0 0 0-1.47.347L3.33 9.801a8.88 8.88 0 0 0-.31 8.808l3.61 6.823c.28.536.87 1.462.87 2.068 0 0-.5 1.25-.499 2.5H25c0-1.25-.499-2.5-.499-2.5 0-.596.62-1.572.9-2.108l3.58-6.773c1.46-2.78 1.35-6.157-.31-8.818Z"/><path fill="#E4B29A" d="M16 24.5c-1.1 0-2-.84-2-1.886v-2.228c0-1.037.892-1.886 2-1.886 1.1 0 2 .84 2 1.886v2.228c-.008 1.045-.9 1.886-2 1.886Z"/><path fill="#EEBFAA" d="M15.55 7.62c-2.98 0-5.34 2.53-5.13 5.5l.42 5.98c.18 1.88 1.66 3.22 3.46 3.22h3.45c1.8 0 3.28-1.34 3.46-3.22l.42-5.98c.21-2.98-2.15-5.5-5.13-5.5h-.95Z"/><path fill="#FFF9BA" d="m21.65 8.68-.45-.23c-.32-.16-.62-.37-.87-.63l-.89-.88c-.66-.66-1.65-.89-2.54-.58-.57.2-1.2.2-1.78 0-.78-.39-1.72-.24-2.34.38l-1.07 1.08c-.26.26-.55.47-.87.63l-.46.23a2.1 2.1 0 0 0-1.13 2.26l.61 3.31c.06.33.34.57.68.58l-.1-1.55c-.02-.31.1-.61.34-.82l.2-.18c.26-.24.42-.59.42-.95v-.93c0-.26.18-.49.43-.56.69-.17 2.15-.46 4.19-.46 2.04 0 3.5.29 4.19.46.26.06.43.29.43.56v.93c0 .36.15.71.43.95l.21.19c.23.21.36.51.34.82l-.1 1.53c.33-.02.6-.26.66-.58l.61-3.31a2.1 2.1 0 0 0-1.14-2.25Z"/><path fill="#fff" d="M11.925 14.964a1.521 1.521 0 0 1 2.966.075.25.25 0 0 1-.247.294h-2.425a.299.299 0 0 1-.294-.369ZM20.075 14.964a1.526 1.526 0 0 0-1.475-1.147c-.743 0-1.353.524-1.491 1.222a.25.25 0 0 0 .247.294h2.425c.196 0 .34-.178.294-.369Z"/><path fill="#7D4533" d="M12.65 15.075a.97.97 0 1 1 1.907.258h-1.872a.966.966 0 0 1-.034-.258ZM19.349 15.075c0-.54-.438-.971-.973-.971a.962.962 0 0 0-.968.97c0 .093.012.179.035.26h1.871a.966.966 0 0 0 .035-.26Z"/><path fill="#000" d="M13.624 14.523a.552.552 0 0 1 .49.81h-.98a.552.552 0 0 1 .49-.81ZM18.37 14.523a.552.552 0 0 0-.49.81h.98a.552.552 0 0 0-.49-.81Z"/><path fill="#fff" d="M13.463 14.703a.174.174 0 0 1-.173.175.174.174 0 0 1-.173-.175c0-.096.078-.175.173-.175.096 0 .173.079.173.175ZM18.243 14.703a.174.174 0 0 1-.173.175.174.174 0 0 1-.172-.175c0-.096.077-.175.172-.175.096 0 .173.079.173.175Z"/><path fill="#D19479" d="m15.584 15.057-.578 1.849c-.118.38.165.76.566.76h.856a.588.588 0 0 0 .566-.76l-.578-1.849c-.124-.41-.702-.41-.832 0Z"/><path fill="#990838" d="M16 18.772c-.552 0-1.07-.13-1.507-.357-.149-.076-.309.092-.215.227.364.553.999.92 1.722.92a2.06 2.06 0 0 0 1.722-.92c.094-.14-.066-.303-.215-.227-.436.227-.95.357-1.507.357Z"/><path fill="#A56953" fill-rule="evenodd" d="M11.88 13.36c.12.15.29.23.47.23.12 0 .25-.04.35-.13l.017-.01c.097-.062.617-.39 1.343-.3.31.04.61-.19.65-.51a.584.584 0 0 0-.51-.65c-1.277-.15-2.166.517-2.21.55-.26.19-.31.56-.11.82Zm7.47.11c.1.08.23.12.35.12.18 0 .35-.08.47-.22.19-.25.15-.62-.11-.82-.03-.03-.92-.71-2.21-.55a.584.584 0 0 0 .14 1.16c.767-.097 1.298.268 1.356.307a.193.193 0 0 0 .004.003Z" clip-rule="evenodd"/></svg>
